X: 35303
T: Rose Of Tralee, The
R: waltz
M: 3/4
K: Cmajor
|:GG|G2A2G2|e3dc2|c2F2A2|A2G2G2|G2A2G2|G2c3c|c2B2c2|d4 GG|
G2A2G2|e3dc2|c2F2A2|A2G2G2|f3g f2|e2c2A2|G2e2d2|c4 cd|
e2e2d2|c4cB|A3^G AB|^G2E3e|e2A2f2|e2e2d2|c3dB2|A4 _A2|
G2A2G2|e3dc2|c2F2A2|A2G2G2|f3gf2|e2c2A2|G2e2d2|c4:|

